img/cart-icon.svg

<svg width="10" height="10" viewBox="0 0 10 10" fill="none" xmlns="http://www.w3.org/2000/svg">
<g clip-path="url(#clip0)">
<path d="M9.86215 2.5217C9.79278 2.43991 9.69341 2.39316 9.58927 2.39316H7.65774V3.4188C7.65774 3.89008 7.25359 4.2735 6.75684 4.2735C6.26008 4.2735 5.85593 3.89008 5.85593 3.4188V2.39316H4.05413V3.4188C4.05413 3.89008 3.64999 4.2735 3.15323 4.2735C2.65648 4.2735 2.25233 3.89008 2.25233 3.4188V2.39316H0.32089C0.216656 2.39316 0.117286 2.43991 0.0479169 2.5217C-0.0215425 2.6035 -0.0544254 2.71256 -0.0425335 2.82145L0.605665 8.78461C0.617737 9.45692 1.14179 9.99999 1.78431 9.99999H8.12584C8.76828 9.99999 9.29233 9.45692 9.30449 8.78452L9.95269 2.82136C9.96449 2.71256 9.93161 2.6035 9.86215 2.5217Z" fill="#231F20"/>
<path d="M3.15333 3.76068C3.35207 3.76068 3.51369 3.60735 3.51369 3.4188V1.53846C3.51369 1.01051 4.07486 0.683761 4.59477 0.683761H5.49567C6.04288 0.683761 6.39657 1.01923 6.39657 1.53846V3.4188C6.39657 3.60735 6.55829 3.76068 6.75693 3.76068C6.95558 3.76068 7.11729 3.60735 7.11729 3.4188V1.53846C7.11729 0.647009 6.43531 0 5.49567 0H4.59477C3.60126 0 2.79297 0.690171 2.79297 1.53846V3.4188C2.79297 3.60735 2.95459 3.76068 3.15333 3.76068Z" fill="#231F20"/>
</g>
<defs>
<clipPath id="clip0">
<rect width="10" height="10" fill="white"/>
</clipPath>
</defs>
</svg>

<svg width="10" height="10" fill="none" xmlns="http://www.w3.org/2000/svg"><g clip-path="url(#clip0)" fill="#231F20"><path d="M9.86 2.52a.36.36 0 00-.27-.13H7.66v1.03c0 .47-.4.85-.9.85s-.9-.38-.9-.85V2.39h-1.8v1.03c0 .47-.41.85-.9.85-.5 0-.9-.38-.9-.85V2.39H.31c-.1 0-.2.05-.27.13a.4.4 0 00-.1.3l.66 5.96c0 .68.53 1.22 1.17 1.22h6.35c.64 0 1.16-.54 1.17-1.22l.65-5.96a.4.4 0 00-.09-.3z"/><path d="M3.15 3.76c.2 0 .36-.15.36-.34V1.54c0-.53.56-.86 1.08-.86h.9c.55 0 .9.34.9.86v1.88c0 .19.17.34.37.34.2 0 .36-.15.36-.34V1.54C7.12.64 6.44 0 5.5 0h-.9c-1 0-1.8.69-1.8 1.54v1.88c0 .19.15.34.35.34z"/></g><defs><clipPath id="clip0"><path fill="#fff" d="M0 0h10v10H0z"/></clipPath></defs></svg>
